source/assets/svg-source/tikz-file-147481.svg

<?xml version="1.0" encoding="UTF-8" standalone="no"?>
<!-- This file was generated by dvisvgm 2.1.3 -->

<svg
   height="75.401001pt"
   version="1.1"
   viewBox="-72 -72 75 75.400998"
   width="75pt"
   id="svg3"
   sodipodi:docname="tikz-file-147481-old.svg"
   inkscape:version="1.4 (e7c3feb1, 2024-10-09)"
   xmlns:inkscape="http://www.inkscape.org/namespaces/inkscape"
   xmlns:sodipodi="http://sodipodi.sourceforge.net/DTD/sodipodi-0.dtd"
   xmlns="http://www.w3.org/2000/svg"
   xmlns:svg="http://www.w3.org/2000/svg">
  <sodipodi:namedview
     id="namedview3"
     pagecolor="#ffffff"
     bordercolor="#000000"
     borderopacity="0.25"
     inkscape:showpageshadow="2"
     inkscape:pageopacity="0.0"
     inkscape:pagecheckerboard="0"
     inkscape:deskcolor="#d1d1d1"
     inkscape:document-units="pt"
     inkscape:zoom="2.95905"
     inkscape:cx="65.561582"
     inkscape:cy="75.868944"
     inkscape:window-width="1424"
     inkscape:window-height="820"
     inkscape:window-x="0"
     inkscape:window-y="37"
     inkscape:window-maximized="0"
     inkscape:current-layer="svg3" />
  <defs
     id="defs1">
    <clipPath
       id="clip1">
      <path
         d="M -72,14.4023 V -72 H 45 V 14.4023 Z M 45,-72"
         id="path1" />
    </clipPath>
  </defs>
  <g
     id="page1"
     transform="translate(-20.783697,-5.3226542)">
    <path
       clip-path="url(#clip1)"
       d="m -49.5,-64.8008 v 36 h 36 v -36 z m 36,36 V 7.19922 h 36 V -28.8008 Z"
       fill="#7dceeb"
       id="path2" />
    <path
       clip-path="url(#clip1)"
       d="m -49.5,7.19922 h 72 m -72,-18.00002 h 72 m -72,-18 h 72 m -72,-18 h 72 m -72,-18 h 72 m -72,72.00002 V -64.8008 m 18,72.00002 V -64.8008 m 18,72.00002 V -64.8008 M 4.5,7.19922 V -64.8008 m 18,72.00002 V -64.8008"
       fill="none"
       stroke="#000000"
       stroke-linejoin="bevel"
       stroke-miterlimit="10.0375"
       stroke-width="0.500008"
       id="path3" />
  </g>
</svg>

<?xml version='1.0' encoding='UTF-8'?>
<!-- This file was generated by dvisvgm 2.1.3 -->
<svg height='86.4008pt' version='1.1' viewBox='-72 -72 117 86.4008' width='117pt' xmlns='http://www.w3.org/2000/svg' xmlns:xlink='http://www.w3.org/1999/xlink'>
<defs>
<clipPath id='clip1'>
<path d='M-72 14.4023V-72H45V14.4023ZM45 -72'/>
</clipPath>
</defs>
<g id='page1'>
<path clip-path='url(#clip1)' d='M-49.5 -64.8008V-28.8008H-13.5V-64.8008ZM-13.5 -28.8008V7.19922H22.5V-28.8008Z' fill='#7dceeb'/>
<path clip-path='url(#clip1)' d='M-49.5 7.19922H22.5M-49.5 -10.8008H22.5M-49.5 -28.8008H22.5M-49.5 -46.8008H22.5M-49.5 -64.8008H22.5M-49.5 7.19922V-64.8008M-31.5 7.19922V-64.8008M-13.5 7.19922V-64.8008M4.5 7.19922V-64.8008M22.5 7.19922V-64.8008' fill='none' stroke='#000000' stroke-linejoin='bevel' stroke-miterlimit='10.0375' stroke-width='0.500008'/>
</g>
</svg>
